configs/network-icons/fuse-short.svg

<svg width="30" height="30" viewBox="0 0 30 30" fill="none" xmlns="http://www.w3.org/2000/svg">
<path fill-rule="evenodd" clip-rule="evenodd" d="M10.9974 4.4393L15.1331 2.05096C15.2509 1.98301 15.397 1.98301 15.5148 2.05096L26.4146 8.344C26.5324 8.41194 26.6049 8.53765 26.6061 8.67354L26.6207 13.0018C26.6207 13.1388 26.5482 13.2657 26.4293 13.3336L22.2993 15.7185C22.0456 15.8658 21.7274 15.6822 21.7262 15.389L21.7127 11.5047C21.7127 11.3688 21.6391 11.2431 21.5213 11.1751L10.9974 5.10065C10.7426 4.95344 10.7426 4.58652 10.9974 4.4393ZM8.32597 24.0443L4.19138 21.6571C4.07248 21.5892 4 21.4634 4 21.3263V8.74032C4 8.60443 4.07248 8.47872 4.19025 8.40964L7.93188 6.23193C8.05079 6.16285 8.19687 6.16285 8.31465 6.23193L12.4447 8.61688C12.6984 8.7641 12.6995 9.12988 12.4458 9.27823L9.08924 11.2317C8.97147 11.2997 8.899 11.4254 8.899 11.5624V23.7148C8.899 24.0092 8.58077 24.1915 8.32597 24.0443ZM26.6208 21.3253V16.5508L26.6196 16.5498C26.6196 16.2554 26.3014 16.0719 26.0467 16.2191L15.5228 22.2958C15.405 22.3626 15.2601 22.3638 15.1423 22.2958L11.7721 20.365C11.5173 20.22 11.2002 20.4036 11.2002 20.6968V25.4655C11.2002 25.6026 11.2738 25.7294 11.3927 25.7973L15.1491 27.949C15.2668 28.017 15.4118 28.017 15.5296 27.949L26.4294 21.6559C26.5484 21.588 26.6208 21.4624 26.6208 21.3253Z" fill="#010101"/>
</svg>

<svg xmlns="http://www.w3.org/2000/svg" fill="none" viewBox="0 0 30 30">
  <path fill="#010101" fill-rule="evenodd" d="m10.997 4.44 4.136-2.389a.383.383 0 0 1 .382 0l10.9 6.293c.117.068.19.194.191.33l.015 4.328a.381.381 0 0 1-.192.332l-4.13 2.385a.382.382 0 0 1-.573-.33l-.013-3.884a.382.382 0 0 0-.192-.33L10.997 5.101a.382.382 0 0 1 0-.662ZM8.326 24.043l-4.135-2.387a.38.38 0 0 1-.191-.33V8.74c0-.136.072-.261.19-.33l3.742-2.178a.38.38 0 0 1 .383 0l4.13 2.385a.382.382 0 0 1 0 .661L9.09 11.232a.381.381 0 0 0-.19.33v12.153a.381.381 0 0 1-.573.33Zm18.295-2.719V16.55l-.001-.001a.382.382 0 0 0-.573-.33l-10.524 6.076a.383.383 0 0 1-.38 0l-3.37-1.931a.383.383 0 0 0-.573.332v4.768c0 .138.074.264.193.332l3.756 2.152a.38.38 0 0 0 .38 0l10.9-6.293a.38.38 0 0 0 .192-.33Z" clip-rule="evenodd"/>
</svg>
